X:107
T:Hunting the Hare - Parsons
%%VWML:SBG-1-2-294-0
F:http://www.vwml.org/record/SBG/1/2/294
Z:Original Sibelius transcriptions by M. & S. Graebe
M:4/4
I:linebreak $
K:G
V:1 treble nm="P1"
V:1
 D | G2 A B | G2 D E | =F E D C | C B, C D | E E D E | =F E D C | G G A A |$ D3 D | G G A B | %10
 E2 A B | c A B G | G F E D | G D g2 | z2 E D |$ G D g2 | G2 G A | B3 G | d2 B c | d d c B | %20
 D2 G F | G4 | %22
T:Hunting the Hare - Barrett
F:http://www.vwml.org/record/SBG/1/2/294
Z:Original Sibelius transcriptions by M. & S. Graebe
M:4/4
I:linebreak $
K:G
V:1 treble nm="P1"
V:1
 z4 z2 D3/2 D/ | G2 G G G2 D D | E E E E D2 D D | G G G G A A A A |$ c B A G A A2 G/ A/ | %5
 B B B G A2 G F | G E A G GF E D |$ B/ D3/2 d3/2 d/ d2 d c | B/ d3/2 d>^c !fermata!d3 |: E | %10
 G2 A3/2 A/ B G d3/2 d/ | B G4- G x2 :| %12

